X: 32670
T: Pointe Au Pic
R: reel
M: 4/4
K: Cmajor
g eg|:decd BcAB|GG G3 gec|decd cBAc|BB B3 fde|
cdBd AcAc|BB B3 ggg|aggg agec|GG G3 gec|
decd BcAB|GG G3 gec|decc ccBB|A3 z A3 B|
c2 Bc d2 cd|eceg a3e|g2 f3 dAB|1 c4cgec:|2 c3B||
|:A2 AB c2 cd|eaae aaa2|eaae a2aA|eaae a2eA|
G3 AB2 Bd|gg g3 GBd|gg g3 GBd|g3f|
A3 Bc3 d|eaae a2aA|eaae a2Aa|eaae a2zg|c'4c'ef^f|
g^fga gecd|efec dedB|1 c3 B:|2 c4cgec||

